doc/_shared_assets/static/social/twitter.svg

<?xml version="1.0" ?><!DOCTYPE svg  PUBLIC '-//W3C//DTD SVG 1.1//EN'  'http://www.w3.org/Graphics/SVG/1.1/DTD/svg11.dtd'><svg enable-background="new 0 0 512 512" height="512px" id="Layer_1" version="1.1" viewBox="0 0 512 512" width="512px" xml:space="preserve" xmlns="http://www.w3.org/2000/svg" xmlns:xlink="http://www.w3.org/1999/xlink"><g><path clip-rule="evenodd" d="M256.23,512C396.81,512,512,396.81,512,256.23   C512,115.184,396.81,0,256.23,0C115.184,0,0,115.184,0,256.23C0,396.81,115.184,512,256.23,512L256.23,512z" fill="#1EBEF0" fill-rule="evenodd"/><path clip-rule="evenodd" d="M276.635,137.407c-9.077,6.351-15.873,15.42-20.865,25.396   l-2.265,5.898c-1.359,4.077-2.273,8.163-2.726,12.241c-0.453,2.265-0.453,4.085-0.906,5.898v3.625l0.453,5.898l0.906,7.71h-0.453   h-2.719h-1.813c-22.224-0.453-43.987-5.445-63.04-14.061l-11.334-5.437c-2.265-0.914-4.078-2.273-6.351-3.632   c-12.694-7.257-24.028-16.78-34.012-27.208c-6.343-6.804-12.241-14.061-17.232-21.771c-5.438,10.437-8.616,22.677-8.616,35.379   c0,4.531,0.453,9.069,1.359,13.6c0,2.265,0.453,4.085,0.914,5.898c4.078,13.6,11.334,25.849,21.31,34.918l4.992,4.539l-6.351-1.367   c-8.163-2.266-16.326-4.984-24.036-8.164c0.906,16.327,7.257,31.293,17.232,43.089c9.522,11.327,22.224,19.951,36.73,24.028   l-16.779,0.906l-14.054-0.453c10.429,25.403,34.465,43.995,63.033,46.261c-26.302,19.498-58.955,30.388-93.873,30.388   c25.849,15.873,55.33,25.841,87.521,27.653h20.865c99.31-5.438,177.77-87.522,177.77-188.199v-9.522   c3.625-3.171,7.25-6.343,10.89-9.975c8.608-7.71,16.326-16.78,22.67-26.302c-10.437,6.804-22.67,10.429-36.277,10.429h-0.453   h-0.453h0.453c12.232-8.163,21.763-20.404,26.747-34.465c-9.515,4.992-20.404,8.616-31.294,11.796l-1.359,0.453l-8.155,1.812   c-11.795-12.702-28.575-20.865-47.167-20.865h-0.452h-0.906c-4.984,0-9.983,0.453-14.968,1.367   c-7.249,1.812-14.514,4.984-20.404,8.616L276.635,137.407z" fill="#FFFFFF" fill-rule="evenodd"/></g></svg>

<?xml version="1.0" encoding="UTF-8" standalone="no"?>
<!DOCTYPE svg PUBLIC "-//W3C//DTD SVG 1.1//EN" "http://www.w3.org/Graphics/SVG/1.1/DTD/svg11.dtd">
<svg width="100%" height="100%" viewBox="0 0 512 512"
    xmlns="http://www.w3.org/2000/svg" version="1.1">
    <circle cx="256" cy="256" r="256" style="fill:rgb(30,190,240);"/>
    <path d="M276.635,137.407C267.558,143.758 260.762,152.827 255.77,162.803L253.505,168.701C252.146,172.778 251.232,176.864 250.779,180.942C250.326,183.207 250.326,185.027 249.873,186.84L249.873,190.465L250.326,196.363L251.232,204.073L246.247,204.073C224.023,203.62 202.26,198.628 183.207,190.012L171.873,184.575C169.608,183.661 167.795,182.302 165.522,180.943C152.828,173.686 141.494,164.163 131.51,153.735C125.167,146.931 119.269,139.674 114.278,131.964C108.84,142.401 105.662,154.641 105.662,167.343C105.662,171.874 106.115,176.412 107.021,180.943C107.021,183.208 107.474,185.028 107.935,186.841C112.013,200.441 119.269,212.69 129.245,221.759L134.237,226.298L127.886,224.931C119.723,222.665 111.56,219.947 103.85,216.767C104.756,233.094 111.107,248.06 121.082,259.856C130.604,271.183 143.306,279.807 157.812,283.884L141.033,284.79L126.979,284.337C137.408,309.74 161.444,328.332 190.012,330.598C163.71,350.096 131.057,360.986 96.139,360.986C121.988,376.859 151.469,386.827 183.66,388.639L204.525,388.639C303.835,383.201 382.295,301.117 382.295,200.44L382.295,190.918C385.92,187.747 389.545,184.575 393.185,180.943C401.793,173.233 409.511,164.163 415.855,154.641C405.418,161.445 393.185,165.07 379.578,165.07L378.672,165.07L379.125,165.07C391.357,156.907 400.888,144.666 405.872,130.605C396.357,135.597 385.468,139.221 374.578,142.401L373.219,142.854L365.064,144.666C353.269,131.964 336.489,123.801 317.897,123.801L316.539,123.801C311.555,123.801 306.556,124.254 301.571,125.168C294.322,126.98 287.057,130.152 281.167,133.784L276.635,137.407Z" style="fill:white;"/>
</svg>
